Dominus_Dark_Funeral/22/apps/user-bookmarks.svg

<svg xmlns="http://www.w3.org/2000/svg" width="24" height="24"><defs><linearGradient id="f"><stop offset="0" stop-color="#fff"/><stop offset="1" stop-color="#fff" stop-opacity=".02"/></linearGradient><linearGradient id="e"><stop offset="0" stop-color="#164450"/><stop offset="1" stop-color="#164450" stop-opacity="0"/></linearGradient><linearGradient id="d"><stop offset="0" stop-color="#fff"/><stop offset="1" stop-color="#fff" stop-opacity=".07"/></linearGradient><linearGradient id="c"><stop offset="0" stop-color="#fff"/><stop offset=".52" stop-color="#fff"/><stop offset="1" stop-color="#ccc"/></linearGradient><linearGradient id="a"><stop offset="0" stop-color="#030000"/><stop offset="1" stop-color="#030000" stop-opacity="0"/></linearGradient><linearGradient id="b"><stop offset="0" stop-color="#164450"/><stop offset="1" stop-color="#00cdff"/></linearGradient></defs><path d="M6.23.28S4.31.28 4.31 2.2v21.53l7.7-7.7 7.68 7.7V2.2C19.7.28 17.77.28 17.77.28H6.23zM12 1.2a6.9 6.9 0 0 1 3.47.93L12 4.66 8.53 2.14A6.9 6.9 0 0 1 12 1.2zM7.36 3l1.31 4.08L5.2 9.6A6.93 6.93 0 0 1 7.36 3zm9.3 0a6.93 6.93 0 0 1 2.14 6.6l-3.47-2.52L16.65 3zm-8.06.48l2.51 1.82-1.55 1.13-.96-2.95zm6.8 0l-.96 2.95L12.9 5.3l2.5-1.82zM12 5.95l2.1 1.52-.8 2.47h-2.6l-.8-2.47L12 5.95zM9.02 8.1l.59 1.83H6.5l2.51-1.83zm5.97 0l2.51 1.83h-3.1l.6-1.82zM5.65 11h4.3l1.33 4.08a6.97 6.97 0 0 1-5.63-4.08zm5.4 0h1.9L12 13.94l-.96-2.95zm3 0h4.3a6.97 6.97 0 0 1-5.62 4.08l1.33-4.08z" fill="#e6e6e6"/></svg>

<?xml version="1.0" encoding="UTF-8" standalone="no"?>
<svg
   xmlns:dc="http://purl.org/dc/elements/1.1/"
   xmlns:cc="http://creativecommons.org/ns#"
   xmlns:rdf="http://www.w3.org/1999/02/22-rdf-syntax-ns#"
   xmlns:svg="http://www.w3.org/2000/svg"
   xmlns="http://www.w3.org/2000/svg"
   xmlns:sodipodi="http://sodipodi.sourceforge.net/DTD/sodipodi-0.dtd"
   xmlns:inkscape="http://www.inkscape.org/namespaces/inkscape"
   width="24"
   height="24"
   version="1.1"
   id="svg38"
   sodipodi:docname="user-bookmarks.svg"
   inkscape:version="0.92.4 (5da689c313, 2019-01-14)">
  <metadata
     id="metadata42">
    <rdf:RDF>
      <cc:Work
         rdf:about="">
        <dc:format>image/svg+xml</dc:format>
        <dc:type
           rdf:resource="http://purl.org/dc/dcmitype/StillImage" />
        <dc:title></dc:title>
      </cc:Work>
    </rdf:RDF>
  </metadata>
  <sodipodi:namedview
     pagecolor="#ffffff"
     bordercolor="#666666"
     borderopacity="1"
     objecttolerance="10"
     gridtolerance="10"
     guidetolerance="10"
     inkscape:pageopacity="0"
     inkscape:pageshadow="2"
     inkscape:window-width="1138"
     inkscape:window-height="480"
     id="namedview40"
     showgrid="false"
     inkscape:zoom="9.8333333"
     inkscape:cx="1.0677966"
     inkscape:cy="12"
     inkscape:window-x="0"
     inkscape:window-y="25"
     inkscape:window-maximized="0"
     inkscape:current-layer="svg38" />
  <defs
     id="defs34">
    <linearGradient
       id="f">
      <stop
         offset="0"
         stop-color="#fff"
         id="stop2" />
      <stop
         offset="1"
         stop-color="#fff"
         stop-opacity=".02"
         id="stop4" />
    </linearGradient>
    <linearGradient
       id="e">
      <stop
         offset="0"
         stop-color="#164450"
         id="stop7" />
      <stop
         offset="1"
         stop-color="#164450"
         stop-opacity="0"
         id="stop9" />
    </linearGradient>
    <linearGradient
       id="d">
      <stop
         offset="0"
         stop-color="#fff"
         id="stop12" />
      <stop
         offset="1"
         stop-color="#fff"
         stop-opacity=".07"
         id="stop14" />
    </linearGradient>
    <linearGradient
       id="c">
      <stop
         offset="0"
         stop-color="#fff"
         id="stop17" />
      <stop
         offset=".52"
         stop-color="#fff"
         id="stop19" />
      <stop
         offset="1"
         stop-color="#ccc"
         id="stop21" />
    </linearGradient>
    <linearGradient
       id="a">
      <stop
         offset="0"
         stop-color="#030000"
         id="stop24" />
      <stop
         offset="1"
         stop-color="#030000"
         stop-opacity="0"
         id="stop26" />
    </linearGradient>
    <linearGradient
       id="b">
      <stop
         offset="0"
         stop-color="#164450"
         id="stop29" />
      <stop
         offset="1"
         stop-color="#00cdff"
         id="stop31" />
    </linearGradient>
  </defs>
  <path
     d="m 6.23,0.28 c 0,0 -1.92,0 -1.92,1.92 v 21.53 l 7.7,-7.7 7.68,7.7 V 2.2 C 19.7,0.28 17.77,0.28 17.77,0.28 Z M 12,1.2 a 6.9,6.9 0 0 1 3.47,0.93 L 12,4.66 8.53,2.14 A 6.9,6.9 0 0 1 12,1.2 Z M 7.36,3 8.67,7.08 5.2,9.6 A 6.93,6.93 0 0 1 7.36,3 Z m 9.3,0 A 6.93,6.93 0 0 1 18.8,9.6 L 15.33,7.08 16.65,3 Z M 8.6,3.48 11.11,5.3 9.56,6.43 Z m 6.8,0 L 14.44,6.43 12.9,5.3 Z M 12,5.95 14.1,7.47 13.3,9.94 H 10.7 L 9.9,7.47 Z M 9.02,8.1 9.61,9.93 H 6.5 L 9.01,8.1 Z m 5.97,0 2.51,1.83 H 14.4 L 15,8.11 Z M 5.65,11 h 4.3 l 1.33,4.08 A 6.97,6.97 0 0 1 5.65,11 Z m 5.4,0 h 1.9 L 12,13.94 11.04,10.99 Z m 3,0 h 4.3 a 6.97,6.97 0 0 1 -5.62,4.08 L 14.06,11 Z"
     id="path36"
     inkscape:connector-curvature="0"
     style="fill:#e6e6e6" />
</svg>
